X:8
T: Es geht nichts ueber die Gemuetlichkeit, eija, eijo
N: V0002D
O: Europa, Mitteleuropa, Deutschland, Ober - Franken, Koednitz
R: Geselligkeits - Lied, Gemuetlichkeit
M: 2/4
L: 1/32
K: G
D4 | G4G4B2A2G2F2 | E4E4E4c4 | F8z4d4 | G8z4
D2D2 | G3GG2G2B2A2G2F2 | E4E4E4c4 | F8z4d4 | G8z4
D4 | G8G4G4G8 | B8A8G8 | E12E4E8 | A16
G8 | F12F4F8 | F8E8F8 | G16z4

